packages/katcn/src/icons/svg/calendar-solid.svg

<svg width="24" height="24" viewBox="0 0 24 24" fill="none" xmlns="http://www.w3.org/2000/svg">
<path d="M22 8.22388V10H2V8.22388C2 6.34328 3.5 4.77612 5.3 4.77612H6.1V6.55224C6.1 7.07463 6.5 7.38806 6.9 7.38806C7.3 7.38806 7.7 6.97015 7.7 6.55224V3.83582C7.8 3.41791 8.2 3 8.7 3C9.2 3 9.5 3.41791 9.5 3.83582V4.67164H13.7V6.44776C13.7 6.97015 14.1 7.28358 14.5 7.28358C14.9 7.28358 15.3 6.86567 15.3 6.44776V3.83582C15.3 3.31343 15.7 3 16.1 3C16.6 3 17 3.41791 17 3.83582V4.67164H18.7C20.5 4.77612 22 6.34328 22 8.22388Z" fill="black"/>
<path d="M2 12H22V18.03C22 19.65 20.5 21 18.7 21H5.3C3.5 21 2 19.65 2 18.03V12Z" fill="black"/>
</svg>

<svg xmlns="http://www.w3.org/2000/svg" fill="none" viewBox="0 0 24 24"><path fill="#000" d="M22 8.224V10H2V8.224c0-1.88 1.5-3.448 3.3-3.448h.8v1.776c0 .523.4.836.8.836s.8-.418.8-.836V3.836c.1-.418.5-.836 1-.836s.8.418.8.836v.836h4.2v1.776c0 .522.4.836.8.836s.8-.418.8-.836V3.836c0-.523.4-.836.8-.836.5 0 .9.418.9.836v.836h1.7c1.8.104 3.3 1.671 3.3 3.552M2 12h20v6.03c0 1.62-1.5 2.97-3.3 2.97H5.3C3.5 21 2 19.65 2 18.03z"/></svg>
